skin/frontend/rwd/default/images/icon-delivery-ac3.svg

<?xml version="1.0" encoding="UTF-8" standalone="no"?>
<!-- Generator: Adobe Illustrator 15.1.0, SVG Export Plug-In . SVG Version: 6.00 Build 0)  -->
<!DOCTYPE svg  PUBLIC '-//W3C//DTD SVG 1.1//EN'  'http://www.w3.org/Graphics/SVG/1.1/DTD/svg11.dtd'>
<svg id="Layer_1" xmlns="http://www.w3.org/2000/svg" xml:space="preserve" height="16.669px" viewBox="0 0 30 16.669" width="30px" version="1.1" y="0px" x="0px" xmlns:xlink="http://www.w3.org/1999/xlink" enable-background="new 0 0 30 16.669">
<path d="m11.116 11.702c-1.385 0-2.504 1.113-2.504 2.486 0 1.367 1.12 2.48 2.504 2.48s2.503-1.113 2.503-2.48c0.001-1.373-1.119-2.486-2.503-2.486zm0 3.726c-0.692 0-1.252-0.558-1.252-1.239 0-0.687 0.56-1.241 1.252-1.241s1.251 0.555 1.251 1.241c0.001 0.681-0.558 1.239-1.251 1.239zm18.884-5.561v2.649c0 0.66-0.54 1.195-1.207 1.195h-1.293c-0.233-1.586-1.613-2.808-3.279-2.808-1.662 0-3.044 1.222-3.278 2.808h-6.548c-0.233-1.586-1.614-2.808-3.277-2.808s-3.043 1.222-3.276 2.808h-1.62c-0.667 0-1.208-0.535-1.208-1.195v-2.649h24.986zm-5.777 1.835c-1.385 0-2.509 1.113-2.509 2.486 0 1.367 1.124 2.48 2.509 2.48 1.381 0 2.504-1.113 2.504-2.48 0-1.373-1.123-2.486-2.504-2.486zm0 3.726c-0.692 0-1.253-0.558-1.253-1.239 0-0.687 0.561-1.241 1.253-1.241 0.688 0 1.252 0.555 1.252 1.241 0 0.681-0.563 1.239-1.252 1.239zm5.301-8.229l-4.746-4.651c-0.301-0.295-0.708-0.462-1.131-0.462h-2.396v-0.89c0-0.662-0.539-1.196-1.207-1.196h-13.823c-0.664 0-1.208 0.535-1.208 1.196v0.188l-4.9 0.56 8.683 1.121-8.796 0.865 8.766 1.235-8.766 0.753 5.014 0.937v2.351h24.986v-0.874c0-0.427-0.173-0.834-0.476-1.133zm-2.069 0.156h-4.592c-0.105 0-0.189-0.084-0.189-0.188v-3.514c0-0.104 0.084-0.187 0.189-0.187h0.872c0.05 0 0.098 0.02 0.134 0.051l3.716 3.514c0.123 0.117 0.04 0.324-0.13 0.324z" fill="#AACB38"/>
</svg>

<?xml version="1.0" encoding="UTF-8"?>
<!-- Generator: Adobe Illustrator 15.1.0, SVG Export Plug-In . SVG Version: 6.00 Build 0)  -->
<!DOCTYPE svg PUBLIC "-//W3C//DTD SVG 1.1//EN" "http://www.w3.org/Graphics/SVG/1.1/DTD/svg11.dtd">
<svg version="1.1" id="Layer_1" xmlns="http://www.w3.org/2000/svg" xmlns:xlink="http://www.w3.org/1999/xlink" x="0px" y="0px" width="30px" height="16.669px" viewBox="0 0 30 16.669" enable-background="new 0 0 30 16.669" xml:space="preserve">
<path fill="#AACB38" d="M11.116,11.702c-1.385,0-2.504,1.113-2.504,2.486c0,1.367,1.12,2.48,2.504,2.48  c1.384,0,2.503-1.113,2.503-2.48C13.62,12.815,12.5,11.702,11.116,11.702z M11.116,15.428c-0.692,0-1.252-0.558-1.252-1.239  c0-0.687,0.56-1.241,1.252-1.241s1.251,0.555,1.251,1.241C12.368,14.87,11.809,15.428,11.116,15.428z M30,9.867v2.649  c0,0.66-0.54,1.195-1.207,1.195H27.5c-0.233-1.586-1.613-2.808-3.279-2.808c-1.662,0-3.044,1.222-3.278,2.808h-6.548  c-0.233-1.586-1.614-2.808-3.277-2.808s-3.043,1.222-3.276,2.808H6.222c-0.667,0-1.208-0.535-1.208-1.195V9.867H30L30,9.867z   M24.223,11.702c-1.385,0-2.509,1.113-2.509,2.486c0,1.367,1.124,2.48,2.509,2.48c1.381,0,2.504-1.113,2.504-2.48  C26.727,12.815,25.604,11.702,24.223,11.702z M24.223,15.428c-0.692,0-1.253-0.558-1.253-1.239c0-0.687,0.561-1.241,1.253-1.241  c0.688,0,1.252,0.555,1.252,1.241C25.475,14.87,24.912,15.428,24.223,15.428z M29.524,7.199l-4.746-4.651  c-0.301-0.295-0.708-0.462-1.131-0.462h-2.396v-0.89C21.251,0.534,20.712,0,20.044,0H6.221C5.557,0,5.013,0.535,5.013,1.196v0.188  l-4.9,0.56l8.683,1.121L0,3.93l8.766,1.235L0,5.918l5.014,0.937l0,2.351H30V8.332C30,7.905,29.827,7.498,29.524,7.199z   M27.455,7.355h-4.592c-0.105,0-0.189-0.084-0.189-0.188V3.653c0-0.104,0.084-0.187,0.189-0.187h0.872  c0.05,0,0.098,0.02,0.134,0.051l3.716,3.514C27.708,7.148,27.625,7.355,27.455,7.355z"/>
</svg>
